X: 39969
T: Three Around Three
R: barndance
M: 4/4
K: Gmajor
|:B c^c|d2 BA G2 G2|A2 BA G2 D2|EDEF G2 AB|c2 B2 B2 A2|
d2 BA G2 G2|A2 BA G2 D2|EDEF G2 AB|1 AG F2 G:|2 AG F2 G3||
|:d-|dd ef gfed|e2 e2 e2 ge|d2 B2 B2 G2|FGAB A4|
d2 ef gfed|e2 ee e2 d2|ef g2 fgaf|1 g4- g3:|2 g4- g||

